icons/lines/award.svg

<svg xmlns="http://www.w3.org/2000/svg" width="24" height="24" viewBox="0 0 24 24" fill="none" stroke="currentColor" stroke-width="2" stroke-linecap="round" stroke-linejoin="round" >
  <path d="M4.25977 11.02V15.99C4.25977 17.81 4.25977 17.81 5.97977 18.97L10.7098 21.7C11.4198 22.11 12.5798 22.11 13.2898 21.7L18.0198 18.97C19.7398 17.81 19.7398 17.81 19.7398 15.99V11.02C19.7398 9.2 19.7398 9.2 18.0198 8.04L13.2898 5.31C12.5798 4.9 11.4198 4.9 10.7098 5.31L5.97977 8.04C4.25977 9.2 4.25977 9.2 4.25977 11.02Z"/>
  <path d="M17.5 7.63V5C17.5 3 16.5 2 14.5 2H9.5C7.5 2 6.5 3 6.5 5V7.56"/>
  <path d="M12.6298 10.99L13.1998 11.88C13.2898 12.02 13.4898 12.16 13.6398 12.2L14.6598 12.46C15.2898 12.62 15.4598 13.16 15.0498 13.66L14.3798 14.47C14.2798 14.6 14.1998 14.83 14.2098 14.99L14.2698 16.04C14.3098 16.69 13.8498 17.02 13.2498 16.78L12.2698 16.39C12.1198 16.33 11.8698 16.33 11.7198 16.39L10.7398 16.78C10.1398 17.02 9.67978 16.68 9.71978 16.04L9.77978 14.99C9.78978 14.83 9.70978 14.59 9.60978 14.47L8.93978 13.66C8.52978 13.16 8.69978 12.62 9.32978 12.46L10.3498 12.2C10.5098 12.16 10.7098 12.01 10.7898 11.88L11.3598 10.99C11.7198 10.45 12.2798 10.45 12.6298 10.99Z"/>
  </svg>

<svg xmlns="http://www.w3.org/2000/svg" width="24" height="24" viewBox="0 0 24 24" fill="none" stroke="currentColor" stroke-width="2" stroke-linecap="round" stroke-linejoin="round">
  <path d="M13.2 11.88a.87.87 0 0 0 .44.32l1.02.26c.63.16.8.7.39 1.2l-.67.81a.9.9 0 0 0-.17.52l.06 1.05c.04.65-.42.98-1.02.74l-.98-.39a.86.86 0 0 0-.55 0l-.98.39c-.6.24-1.06-.1-1.02-.74l.06-1.05a.88.88 0 0 0-.17-.52l-.67-.81c-.41-.5-.24-1.04.39-1.2l1.02-.26a.85.85 0 0 0 .44-.32l.57-.89c.36-.54.92-.54 1.27 0z" />
  <path d="M17.5 7.63V5q0-3-3-3h-5q-3 0-3 3v2.56" />
  <path d="M4.26 15.99c0 1.82 0 1.82 1.72 2.98l4.73 2.73c.71.41 1.87.41 2.58 0l4.73-2.73c1.72-1.16 1.72-1.16 1.72-2.98v-4.97c0-1.82 0-1.82-1.72-2.98l-4.73-2.73c-.71-.41-1.87-.41-2.58 0L5.98 8.04C4.26 9.2 4.26 9.2 4.26 11.02z" />
</svg>
